X:1
T:Falfield, 87.87 D
T:Falfield, 87.87 D
T:Arthur Seymour Sullivan, 1867
T:Public Domain Courtesy of the Cyber Hymnal™
C:Arthur Seymour Sullivan, 1867
Z:Public Domain
Z:Courtesy of the Cyber Hymnal™
%%score ( 1 2 ) ( 3 4 )
L:1/8
Q:1/4=110
M:4/4
K:G
V:1 treble 
V:2 treble 
V:3 bass 
V:4 bass 
V:1
 [GB]2 [FA]2 G2- (GG) | [EA]2 [EB]2 [Ec]2 [Ec]2 | [Dc]3 [Dc] [DB]2 [Dd]2 | [Gd]2 [G^c]2 [Fd]4 | %4
 [GB]2 [FA]2 G2- (GG) | [EA]2 [^GB]2 [Ac]2 [Ac]2 | [Ac]3 [Ad] [GB]2 [DG]2 | [CG]2 [CF]2 [B,G]4 | %8
 [DA]3 [DG] [DF]2 [DA]2 | [Cc]3 [Cc] [CA]2 [Cc]2 | [=Fc]2 [Fd]2 [Ee]2 [Ed]2 | [Ec]2 [EB]2 [FA]4 | %12
 [GB]2 [FA]2 G2- (GG) | [EA]2 [^GB]2 [Ac]2 [Ac]2 | [Ac]3 [Ad] [GB]2 [DG]2 | [CG]2 [CF]2 [B,G]4 |] %16
V:2
 x6 F2 | x8 | x8 | x8 | x6 F2 | x8 | x8 | x8 | x8 | x8 | x8 | x8 | x6 F2 | x8 | x8 | x8 |] %16
V:3
 [G,D]2 [D,C]2 [E,B,-]2 (B,B,) | [C,C]2 [E,^G,]2 A,2 [=G,A,]2 | [F,A,]3 [F,A,] G,2 [F,A,]2 | %3
 [E,B,]2 A,2 [D,A,]4 | G,2 [D,C]2 [E,B,-]2 (B,B,) | [C,C]2 [B,,D]2 [A,,C]2 [G,E]2 | %6
 [E,D]3 [E,D] [G,D]2 [B,,B,]2 | [D,A,]2 [D,A,]2 [G,,G,]4 | [D,F,]3 [E,G,] [F,A,]2 [D,F,]2 | %9
 [A,,E,]3 [A,,E,] [C,E,]2 [A,,A,]2 | [=F,A,]2 [D,B,]2 [C,C]2 [G,,B,]2 | [A,,A,]2 [^C,G,]2 [D,D]4 | %12
 [G,D]2 [D,C]2 [E,B,-]2 (B,B,) | [C,C]2 [E,D]2 [A,C]2 [G,E]2 | [F,D]3 [F,D] [G,D]2 [B,,B,]2 | %15
 [D,A,]2 [D,A,]2 [G,,G,]4 |] %16
V:4
 x6 D,2 | x4 A,2 x2 | x8 | x8 | x6 D,2 | x8 | x8 | x8 | x8 | x8 | x8 | x8 | x6 D,2 | x8 | x8 | %15
 x8 |] %16

